resources/icons/16px/blocked-person.svg

<svg xmlns="http://www.w3.org/2000/svg" viewBox="0 0 16 16">
  <path d="M9.39 12.69c-1.2-.53-1.04-.85-1.08-1.29-.01-.07-.01-.13-.02-.2.41-.37.75-.87.97-1.44 0 0 .01-.03.01-.04.05-.13.09-.26.13-.39.27-.06.43-.36.5-.63.01-.03.03-.08.05-.12C8.18 7.8 6.94 6.04 6.94 4c0-.32.04-.62.09-.92-.17-.03-.35-.08-.51-.08-.65 0-1.37.2-1.88.59-.5.38-.87.92-1.05 1.51-.04.14-.07.27-.09.41-.09.48-.14 1.23-.14 1.74v.06c-.19.08-.36.27-.4.68-.03.31.1.59.16.7.06.28.23.59.51.64.04.14.08.27.13.39 0 .01.01.02.01.02v.01c.22.59.57 1.1.99 1.46 0 .06-.01.12-.01.17-.04.44.08.76-1.12 1.29S.62 13.77.25 14.62C-.12 15.5.03 16 .03 16h12.96s.15-.5-.22-1.36c-.37-.85-2.18-1.42-3.38-1.95M11.97 0C9.75 0 7.94 1.79 7.94 4s1.8 4 4.03 4S16 6.21 16 4s-1.8-4-4.03-4M9.96 4c0-1.1.9-2 2.01-2 .37 0 .72.11 1.02.28l-2.75 2.73c-.17-.3-.28-.64-.28-1.01m2.01 2c-.37 0-.72-.11-1.02-.28l2.75-2.73c.18.3.28.64.28 1.01.01 1.1-.9 2-2.01 2"/>
</svg>

<?xml version="1.0" encoding="utf-8"?>
<!-- Generator: Adobe Illustrator 18.0.0, SVG Export Plug-In . SVG Version: 6.00 Build 0)  -->
<svg version="1.1" id="Layer_1" xmlns="http://www.w3.org/2000/svg" xmlns:xlink="http://www.w3.org/1999/xlink" x="0px" y="0px"
	 viewBox="0 0 16 16" enable-background="new 0 0 16 16" xml:space="preserve">
<g id="blocked_person_1_">
	<g>
		<path fill-rule="evenodd" clip-rule="evenodd" d="M9.39,12.69c-1.2-0.53-1.04-0.85-1.08-1.29C8.3,11.33,8.3,11.27,8.29,11.2
			c0.41-0.37,0.75-0.87,0.97-1.44c0,0,0.01-0.03,0.01-0.04C9.32,9.59,9.36,9.46,9.4,9.33C9.67,9.27,9.83,8.97,9.9,8.7
			c0.01-0.03,0.03-0.08,0.05-0.12C8.18,7.8,6.94,6.04,6.94,4c0-0.32,0.04-0.62,0.09-0.92C6.86,3.05,6.68,3,6.52,3
			C5.87,3,5.15,3.2,4.64,3.59C4.14,3.97,3.77,4.51,3.59,5.1C3.55,5.24,3.52,5.37,3.5,5.51C3.41,5.99,3.36,6.74,3.36,7.25
			c0,0.02,0,0.04,0,0.06C3.17,7.39,3,7.58,2.96,7.99c-0.03,0.31,0.1,0.59,0.16,0.7c0.06,0.28,0.23,0.59,0.51,0.64
			C3.67,9.47,3.71,9.6,3.76,9.72c0,0.01,0.01,0.02,0.01,0.02l0,0.01c0.22,0.59,0.57,1.1,0.99,1.46c0,0.06-0.01,0.12-0.01,0.17
			c-0.04,0.44,0.08,0.76-1.12,1.29c-1.2,0.53-3.01,1.1-3.38,1.95C-0.12,15.5,0.03,16,0.03,16h12.96c0,0,0.15-0.5-0.22-1.36
			C12.4,13.79,10.59,13.22,9.39,12.69z M11.97,0C9.75,0,7.94,1.79,7.94,4c0,2.21,1.8,4,4.03,4S16,6.21,16,4C16,1.79,14.2,0,11.97,0z
			 M9.96,4c0-1.1,0.9-2,2.01-2c0.37,0,0.72,0.11,1.02,0.28l-2.75,2.73C10.07,4.71,9.96,4.37,9.96,4z M11.97,6
			c-0.37,0-0.72-0.11-1.02-0.28l2.75-2.73c0.18,0.3,0.28,0.64,0.28,1.01C13.99,5.1,13.08,6,11.97,6z"/>
	</g>
</g>
</svg>
